!!!OTL: ICH WEISS EIN STOLZE MUELLERIN
!!!ARE: Europa, Mitteleuropa, Deutschland
!!!SCT: E0155
!!!YEM: Copyright 1995, estate of Helmut Schaffrath.
**kern
*ICvox
*Ivox
*M4/4
*k[]
*C:
{4c
=1
4c
4e
4d
4c
=2
4B
4B
4A}
{4B
=3
4c
4G
4A
4B
=4
2.c}
{4c
=5
4c
4e
4d
4c
=6
4B
4B
4A}
{4B
=7
4c
4G
4A
4B
=8
4.c
8d
4e}
{4c
=9
4.d
8c
4B
4A
=10
2G
4r}
{4B
=11
4c
4B
4c
4A
=12
2G
4E}
{4c
=13
4c
4c
4d
4d
=14
2e
4d}
{4f
=15
4e
4c
4d
4d
=16
2.c}
==
!!!AGN: erzaehlendes Volks - Lied, Scherz, Schwank, Spott auf den Klerus, Ballade ?
!!!ONB: ESAC (Essen Associative Code) Database: ERK1
!!!AMT: simple quadruple
!!!AIN: vox
!!!EED: Helmut Schaffrath
!!!EEV: 1.0
*-
